**harmony	**harte	**kern	**silbe	**rhyme	**timestamp	**phrase
*M12/8	*M12/8	*ICvox	*	*	*	*
*	*	*VRlead	*	*	*	*
*	*	*Hstimme	*	*	*	*
*C:	*C:	*C:	*	*	*	*
*	*	*M12/8	*	*	*	*
*	*	*clefF4	*	*	*	*
1r;	1r	r;	.	.	0	.
=1	=1	=1	=1	=1	=1	=1
*>Letter>A	*>Letter>A	*>Letter>A	*>Letter>A	*>Letter>A	*>Letter>A	*>Letter>A
*>Label>Verse	*>Label>Verse	*>Label>Verse	*>Label>Verse	*>Label>Verse	*>Label>Verse	*>Label>Verse
1.CM	C:maj	[2.c	Oh	.	0.372	newline
.	.	4.c_	_	.	.	.
.	.	8c]	_	.	.	.
.	.	8d	my	A	.	.
.	.	8c	_	.	.	.
=2	=2	=2	=2	=2	=2	=2
1.Am	A:min	8e	love	B	4.056	.
.	.	8d	_	.	.	.
.	.	[8c	_	.	.	.
.	.	2.c_	_	.	.	.
.	.	4c]	_	.	.	.
.	.	[8d	my	A	.	.
=3	=3	=3	=3	=3	=3	=3
1.FM	F:maj	8d]	_	.	7.741	.
.	.	12d	dar	.	.	.
.	.	12c	_	.	.	.
.	.	12B	_	.	.	.
.	.	2.c	ling	.	.	.
.	.	4r	.	.	.	.
.	.	8c	I've	A	.	.
=4	=4	=4	=4	=4	=4	=4
1.GM	G:maj	[4.G	hung-	B	11.425	.
.	.	4G]	_	.	.	.
.	.	8B	-ered	.	.	.
.	.	[4.d	for	.	.	.
.	.	4d]	_	.	.	.
.	.	[8e	your	.	.	.
=5	=5	=5	=5	=5	=5	=5
1.CM	C:maj	4e]	_	.	15.11	newline
.	.	16e	_	.	.	.
.	.	16d	_	.	.	.
.	.	8c	_	.	.	.
.	.	8d	_	.	.	.
.	.	[8c	touch	B	.	.
.	.	4c]	_	.	.	.
.	.	8r	.	.	.	.
.	.	4r	.	.	.	.
.	.	16r	.	.	.	.
.	.	16d	a	.	.	.
=6	=6	=6	=6	=6	=6	=6
1.Am	A:min	[2.c	long	.	18.737	.
.	.	4.c]	_	.	.	.
.	.	4E	lone-	.	.	.
.	.	8F	-ly	.	.	.
=7	=7	=7	=7	=7	=7	=7
1.GM	G:maj	[2.G	time	.	22.364	.
.	.	4.G]	_	.	.	.
.	.	4.r	.	.	.	.
=8	=8	=8	=8	=8	=8	=8
1.GM	G:maj	2.r	.	.	25.991	.
.	.	4.r	.	.	.	.
.	.	4r	.	.	.	.
.	.	8G	and	.	.	.
=9	=9	=9	=9	=9	=9	=9
1.CM	C:maj	[2.c	time	A	29.618	newline
.	.	4.c_	_	.	.	.
.	.	4c]	_	.	.	.
.	.	[8e	goes	.	.	.
=10	=10	=10	=10	=10	=10	=10
1.Am	A:min	8e]	_	.	33.208	.
.	.	12e	_	.	.	.
.	.	12d	_	.	.	.
.	.	12c	_	.	.	.
.	.	16d	by	A	.	.
.	.	[16c	_	.	.	.
.	.	4c_	_	.	.	.
.	.	4.c]	_	.	.	.
.	.	8r	.	.	.	.
.	.	8r	.	.	.	.
.	.	[8d	so	.	.	.
=11	=11	=11	=11	=11	=11	=11
1.FM	F:maj	8d]	_	.	36.799	.
.	.	12e	slow-	.	.	.
.	.	12d	_	.	.	.
.	.	12c	_	.	.	.
.	.	8d	-ly	c	.	.
.	.	8c	_	.	.	.
.	.	[8A	_	.	.	.
.	.	4.A]	_	.	.	.
.	.	8r	.	.	.	.
.	.	8r	.	.	.	.
.	.	8A	and	.	.	.
=12	=12	=12	=12	=12	=12	=12
1.GM	G:maj	[4.G	time	A	40.389	.
.	.	4G]	_	.	.	.
.	.	8G	can	.	.	.
.	.	[4.e	do	D	.	.
.	.	4e]	_	.	.	.
.	.	8d	so	.	.	.
=13	=13	=13	=13	=13	=13	=13
1.CM	C:maj	4c	much	B	43.98	newline
.	.	8r	.	.	.	.
.	.	4.r	.	.	.	.
.	.	4r	.	.	.	.
.	.	[8e	are	.	.	.
.	.	8.e]	_	.	.	.
.	.	16d	_	.	.	.
.	.	16e	_	.	.	.
.	.	16d	_	.	.	.
=14	=14	=14	=14	=14	=14	=14
1.Am	A:min	8c	_	.	47.634	.
.	.	12e	you	D	.	.
.	.	12d	_	.	.	.
.	.	[12c	_	.	.	.
.	.	2.c]	_	.	.	.
.	.	4r	.	.	.	.
.	.	8c	still	.	.	.
=15	=15	=15	=15	=15	=15	=15
1.GM	G:maj	[1.g	mine	A	51.289	.
=16	=16	=16	=16	=16	=16	=16
1.GM	G:maj	4.g]	_	.	54.943	.
.	.	8r	.	.	.	.
.	.	16f	I	A	.	.
.	.	16g	_	.	.	.
.	.	8f	_	.	.	.
.	.	16f	_	.	.	.
.	.	16g	_	.	.	.
.	.	4f	_	.	.	.
.	.	16f	_	.	.	.
.	.	16g	_	.	.	.
.	.	8f	_	.	.	.
.	.	8d	_	.	.	.
=17	=17	=17	=17	=17	=17	=17
*>Letter>B	*>Letter>B	*>Letter>B	*>Letter>B	*>Letter>B	*>Letter>B	*>Letter>B
*>Label>Chorus	*>Label>Chorus	*>Label>Chorus	*>Label>Chorus	*>Label>Chorus	*>Label>Chorus	*>Label>Chorus
1.CM	C:maj	16e	_	.	58.597	newline
.	.	16f	_	.	.	.
.	.	4e	_	.	.	.
.	.	8r	.	.	.	.
.	.	16e	need	C	.	.
.	.	16d	_	.	.	.
.	.	16e	_	.	.	.
.	.	[16c	_	.	.	.
.	.	4c]	_	.	.	.
.	.	8r	.	.	.	.
.	.	4r	.	.	.	.
.	.	[8c	your	.	.	.
=18	=18	=18	=18	=18	=18	=18
1.GM	G:maj	4c]	_	.	62.224	.
.	.	8c	love	B	.	.
.	.	2.G	_	.	.	.
.	.	4.r	.	.	.	.
=19	=19	=19	=19	=19	=19	=19
1.Am	A:min	16d	I	A	65.85	.
.	.	[16e	_	.	.	.
.	.	4e]	_	.	.	.
.	.	16d	_	.	.	.
.	.	16e	_	.	.	.
.	.	16d	_	.	.	.
.	.	8.c	_	.	.	.
.	.	16d	_	.	.	.
.	.	[16c	_	.	.	.
.	.	4c_	_	.	.	.
.	.	4.c]	_	.	.	.
=20	=20	=20	=20	=20	=20	=20
1.Em	E:min	8c	need	C	69.477	.
.	.	8G	your	.	.	.
.	.	8G	love	B	.	.
.	.	4.E	_	.	.	.
.	.	4.r	.	.	.	.
.	.	4.c	God-	.	.	.
=21	=21	=21	=21	=21	=21	=21
1.FM	F:maj	[4.A	-speed	C	73.103	newline
.	.	4A]	_	.	.	.
.	.	8F	your	.	.	.
.	.	8F	love	B	.	.
.	.	[4D	_	.	.	.
.	.	4.D]	_	.	.	.
=22	=22	=22	=22	=22	=22	=22
1.GM	G:maj	[4.d	to	.	76.664	.
.	.	8d]	_	.	.	.
.	.	8e	_	.	.	.
.	.	8d	_	.	.	.
.	.	8e	_	.	.	.
.	.	4g	_	.	.	.
.	.	8a	_	.	.	.
.	.	8r	.	.	.	.
.	.	[8e	me	C	.	.
=23	=23	=23	=23	=23	=23	=23
1.CM	C:maj	8e]	_	.	80.225	.
.	.	8d	_	.	.	.
.	.	16c	_	.	.	.
.	.	16d	_	.	.	.
.	.	4.c	_	.	.	.
.	.	4.r	.	.	.	.
.	.	4.r	.	.	.	.
=24	=24	=24	=24	=24	=24	=24
1.CMm	C:7	1.r	.	.	83.787	.
=25	=25	=25	=25	=25	=25	=25
*>Letter>C	*>Letter>C	*>Letter>C	*>Letter>C	*>Letter>C	*>Letter>C	*>Letter>C
*>Label>Bridge	*>Label>Bridge	*>Label>Bridge	*>Label>Bridge	*>Label>Bridge	*>Label>Bridge	*>Label>Bridge
2.FM	F:maj	8.F	Lone-	.	87.348	newline
.	.	8.G	-ly	c	.	.
.	.	8r	.	.	.	.
.	.	8A	ri-	.	.	.
.	.	8c	-vers	.	.	.
2.GM	G:maj	4.B	flow	.	89.166	.
.	.	8r	.	.	.	.
.	.	8c	to	.	.	.
.	.	8B	the	.	.	.
=26	=26	=26	=26	=26	=26	=26
2.FM	F:maj	4.A	sea	C	90.985	.
.	.	8r	.	.	.	.
.	.	8F	to	.	.	.
.	.	8A	the	.	.	.
2.E-M	E-:maj	4.G	sea	C	92.804	.
.	.	4.r	.	.	.	.
=27	=27	=27	=27	=27	=27	=27
2.FM	F:maj	8.F	to	.	94.622	.
.	.	8.G	the	.	.	.
.	.	8r	.	.	.	.
.	.	8A	o-	.	.	.
.	.	8c	-pen	.	.	.
2.GM	G:maj	4.d	arms	.	96.441	.
.	.	8r	.	.	.	.
.	.	8d	of	.	.	.
.	.	8c	the	.	.	.
=28	=28	=28	=28	=28	=28	=28
1.CM	C:maj	8e	sea	C	98.26	.
.	.	8e	_	.	.	.
.	.	[8g	_	.	.	.
.	.	8g]	_	.	.	.
.	.	8g	_	.	.	.
.	.	8a	_	.	.	.
.	.	8e	yeah	.	.	.
.	.	8e	_	.	.	.
.	.	8e	_	.	.	.
.	.	8d	_	.	.	.
.	.	4c	_	.	.	.
=29	=29	=29	=29	=29	=29	=29
2.FM	F:maj	8.F	Lone-	.	101.897	newline
.	.	8.G	-ly	c	.	.
.	.	8r	.	.	.	.
.	.	8A	ri-	.	.	.
.	.	8c	-vers	.	.	.
2.GM	G:maj	4.B	sigh	A	103.713	.
.	.	8.r	.	.	.	.
.	.	8c	wait	.	.	.
.	.	16B	for	.	.	.
=30	=30	=30	=30	=30	=30	=30
2.FM	F:maj	4.A	me	C	105.529	.
.	.	8r	.	.	.	.
.	.	8F	wait	.	.	.
.	.	8A	for	.	.	.
2.E-M	E-:maj	4.G	me	C	107.345	.
.	.	4.r	.	.	.	.
=31	=31	=31	=31	=31	=31	=31
2.FM	F:maj	8.F	I'll	.	109.161	.
.	.	8.G	be	.	.	.
.	.	8r	.	.	.	.
.	.	8A	com-	B	.	.
.	.	8c	-ing	.	.	.
2.GM	G:maj	4.d	home	.	110.978	.
.	.	8.r	.	.	.	.
.	.	8e	wait	.	.	.
.	.	16d	for	.	.	.
=32	=32	=32	=32	=32	=32	=32
1.CM	C:maj	8.e	me	C	112.794	.
.	.	[8.e	_	.	.	.
.	.	8e]	_	.	.	.
.	.	8d	_	.	.	.
.	.	16c	_	.	.	.
.	.	16d	_	.	.	.
.	.	4.c	_	.	.	.
.	.	4.r	.	.	.	.
=33	=33	=33	=33	=33	=33	=33
*>Letter>A	*>Letter>A	*>Letter>A	*>Letter>A	*>Letter>A	*>Letter>A	*>Letter>A
*>Label>Verse	*>Label>Verse	*>Label>Verse	*>Label>Verse	*>Label>Verse	*>Label>Verse	*>Label>Verse
1.CM	C:maj	[2.c	Whoa	.	116.426	newline
.	.	4c]	_	.	.	.
.	.	[8e	my	A	.	.
.	.	8e]	_	.	.	.
.	.	16d	_	.	.	.
.	.	16e	_	.	.	.
.	.	16d	_	.	.	.
.	.	16c	_	.	.	.
=34	=34	=34	=34	=34	=34	=34
1.Am	A:min	8d	love	B	120.135	.
.	.	[4c	_	.	.	.
.	.	2.c]	_	.	.	.
.	.	4r	.	.	.	.
.	.	[8d	my	A	.	.
=35	=35	=35	=35	=35	=35	=35
1.FM	F:maj	8d]	_	.	123.844	.
.	.	12e	dar-	.	.	.
.	.	12d	_	.	.	.
.	.	12c	_	.	.	.
.	.	2.c	-ling	c	.	.
.	.	4r	.	.	.	.
.	.	8c	I've	A	.	.
=36	=36	=36	=36	=36	=36	=36
1.GM	G:maj	8d	hung-	B	127.553	.
.	.	16d	-ered	.	.	.
.	.	16c	_	.	.	.
.	.	8B	_	.	.	.
.	.	4.r	.	.	.	.
.	.	8a	hung-	B	.	.
.	.	16g	-ered	.	.	.
.	.	16a	_	.	.	.
.	.	8g	_	.	.	.
.	.	8.f	_	.	.	.
.	.	8f	for	.	.	.
.	.	16f	your	.	.	.
=37	=37	=37	=37	=37	=37	=37
1.CM	C:maj	8.e	touch	B	131.262	newline
.	.	8.e	_	.	.	.
.	.	8e	_	.	.	.
.	.	16d	_	.	.	.
.	.	8c	_	.	.	.
.	.	16d	_	.	.	.
.	.	16e	_	.	.	.
.	.	16g	_	.	.	.
.	.	8e	_	.	.	.
.	.	8r	.	.	.	.
.	.	8r	.	.	.	.
.	.	12e	a	.	.	.
.	.	12d	_	.	.	.
.	.	12c	_	.	.	.
=38	=38	=38	=38	=38	=38	=38
1.Am	A:min	8d	long	.	134.863	.
.	.	[4c	_	.	.	.
.	.	2.c]	_	.	.	.
.	.	4E	lone-	.	.	.
.	.	8F	-ly	c	.	.
=39	=39	=39	=39	=39	=39	=39
1.GM	G:maj	[2.G	time	A	138.463	.
.	.	4.G]	_	.	.	.
.	.	4.r	.	.	.	.
=40	=40	=40	=40	=40	=40	=40
1.GM	G:maj	2.r	.	.	142.064	.
.	.	4.r	.	.	.	.
.	.	4r	.	.	.	.
.	.	8G	and	.	.	.
=41	=41	=41	=41	=41	=41	=41
1.CM	C:maj	8.e	time	A	145.665	newline
.	.	[8.e	_	.	.	.
.	.	4e]	_	.	.	.
.	.	8d	_	.	.	.
.	.	4.c	_	.	.	.
.	.	4r	.	.	.	.
.	.	[8e	goes	.	.	.
=42	=42	=42	=42	=42	=42	=42
1.Am	A:min	8e]	_	.	149.373	.
.	.	[4e	_	.	.	.
.	.	8e]	_	.	.	.
.	.	16d	_	.	.	.
.	.	16e	_	.	.	.
.	.	16d	_	.	.	.
.	.	16c	_	.	.	.
.	.	8d	by	A	.	.
.	.	4c	_	.	.	.
.	.	8r	.	.	.	.
.	.	8r	.	.	.	.
.	.	[8d	so	.	.	.
=43	=43	=43	=43	=43	=43	=43
1.FM	F:maj	8d]	_	.	153.08	.
.	.	12e	slow-	.	.	.
.	.	12d	_	.	.	.
.	.	12c	_	.	.	.
.	.	8d	-ly	c	.	.
.	.	8c	_	.	.	.
.	.	[8A	_	.	.	.
.	.	4.A]	_	.	.	.
.	.	8r	.	.	.	.
.	.	8r	.	.	.	.
.	.	8c	and	.	.	.
=44	=44	=44	=44	=44	=44	=44
1.GM	G:maj	[4.G	time	A	156.787	.
.	.	4G]	_	.	.	.
.	.	8B	can	.	.	.
.	.	[4.d	do	D	.	.
.	.	4d]	_	.	.	.
.	.	[8e	so	.	.	.
=45	=45	=45	=45	=45	=45	=45
1.CM	C:maj	8e]	_	.	160.495	newline
.	.	4c	_	.	.	.
.	.	8c	much	B	.	.
.	.	8r	.	.	.	.
.	.	8r	.	.	.	.
.	.	4.r	.	.	.	.
.	.	8r	.	.	.	.
.	.	8r	.	.	.	.
.	.	8d	are	.	.	.
=46	=46	=46	=46	=46	=46	=46
1.Am	A:min	2.c	you	D	164.115	.
.	.	4.r	.	.	.	.
.	.	8r	.	.	.	.
.	.	8r	.	.	.	.
.	.	8c	still	.	.	.
=47	=47	=47	=47	=47	=47	=47
1.GM	G:maj	1.g	mine	A	167.735	.
=48	=48	=48	=48	=48	=48	=48
1.GM	G:maj	2.r	.	.	171.355	.
.	.	4.r	.	.	.	.
.	.	8a	I	A	.	.
.	.	8g	_	.	.	.
.	.	8f	_	.	.	.
=49	=49	=49	=49	=49	=49	=49
*>Letter>B	*>Letter>B	*>Letter>B	*>Letter>B	*>Letter>B	*>Letter>B	*>Letter>B
*>Label>Chorus	*>Label>Chorus	*>Label>Chorus	*>Label>Chorus	*>Label>Chorus	*>Label>Chorus	*>Label>Chorus
1.CM	C:maj	4g	_	.	174.975	newline
.	.	[8ee	need	C	.	.
.	.	4ee]	_	.	.	.
.	.	8cc	_	.	.	.
.	.	4.g	_	.	.	.
.	.	8.r	.	.	.	.
.	.	8.a	your	.	.	.
=50	=50	=50	=50	=50	=50	=50
1.GM	G:maj	4g	love	B	178.617	.
.	.	8a	_	.	.	.
.	.	4.r	.	.	.	.
.	.	8r	.	.	.	.
.	.	8r	.	.	.	.
.	.	8e	I	A	.	.
.	.	16e	_	.	.	.
.	.	8.d	_	.	.	.
.	.	16c	_	.	.	.
.	.	16d	_	.	.	.
=51	=51	=51	=51	=51	=51	=51
1.Am	A:min	16e	_	.	182.259	.
.	.	16d	_	.	.	.
.	.	16c	_	.	.	.
.	.	16d	_	.	.	.
.	.	[8c	_	.	.	.
.	.	4.c]	_	.	.	.
.	.	4.r	.	.	.	.
.	.	8c	I	.	.	.
.	.	16c	real-	(C	.	.
.	.	8.c	-ly	c)	.	.
=52	=52	=52	=52	=52	=52	=52
1.Em	E:min	8B	need	C	185.901	.
.	.	8G	your	.	.	.
.	.	8G	love	B	.	.
.	.	4.E	_	.	.	.
.	.	4.r	.	.	.	.
.	.	4.B	God-	.	.	.
=53	=53	=53	=53	=53	=53	=53
1.FM	F:maj	[4.A	-speed	C	189.543	newline
.	.	4A]	_	.	.	.
.	.	8F	your	.	.	.
.	.	8F	love	B	.	.
.	.	4D	_	.	.	.
.	.	4.r	.	.	.	.
=54	=54	=54	=54	=54	=54	=54
1.GM	G:maj	[4.d	to	.	193.204	.
.	.	8d]	_	.	.	.
.	.	8e	_	.	.	.
.	.	8d	_	.	.	.
.	.	8e	_	.	.	.
.	.	4g	_	.	.	.
.	.	8a	_	.	.	.
.	.	4r	.	.	.	.
=55	=55	=55	=55	=55	=55	=55
1.CM	C:maj	[2.cc	me	C	196.865	newline
.	.	4.cc]	_	.	.	.
.	.	8b	_	.	.	.
.	.	8cc	_	.	.	.
.	.	8dd	_	.	.	.
=56	=56	=56	=56	=56	=56	=56
1.Am	A:min	[2.cc	_	.	200.534	.
.	.	4.cc]	_	.	.	.
.	.	8cc	_	.	.	.
.	.	8dd	_	.	.	.
.	.	8ee	_	.	.	.
=57	=57	=57	=57	=57	=57	=57
2.FM	F:maj	[2.ff	_	.	204.202	.
2.Fm	F:min	4.ff]	_	.	206.036	.
.	.	4.ff	_	.	.	.
=58	=58	=58	=58	=58	=58	=58
1.CM	C:maj	1.gg	_	.	207.87	.
1r;	1r	r;	.	.	214.901	.
1r;	1r	r;	.	.	218.331	.
*-	*-	*-	*-	*-	*-	*-
!!!BillboardChartDate: 1965/08/14, 1990/10/20
!!!BillboardPeak: 4, 13
!!!BillboardWeeksOnChart: 13, 44
!!!COC: The Righteous Brothers
!!!ENC: Nathaniel Condit-Schultz
!!!EST: Awating manual error checking and editing.
!!!OTL: Unchained Melody
!!!RDF**chordsym: original McGill chord annotation + (implied pitch class set, with bass pitch in first position)
!!!RDF**harmony: **recip + pitch class of root + harmonic quality
!!!RDF**leadinstrument: original McGill primary instrumentation annotation
!!!RDF**phrase: newline = linebreak in original McGill transcription
!!!RDF**timestamp: McGill audio timestamp in seconds
!!!RDT: 2017/01/12/
!!!SampleActualRank: 6, 25
!!!SampleID#: 587, 1007
!!!SampleTargetRank: 6, 25
!!!MBID: 4d78b3d1-42a2-4a50-8475-29e7cf5b5e64